assets/img/braze_icons/arrow-circle-broken-up-right.svg

<svg fill="none" height="24" viewBox="0 0 24 24" width="24" xmlns="http://www.w3.org/2000/svg"><path d="m6.38856 21.4641c-.44289-.263-.66433-.3945-.79582-.6417-.10494-.1974-.14158-.4895-.0886-.7066.06638-.2721.27572-.4814.69441-.9001l7.62985-7.6299v3.2426c0 .5523.4477 1 1 1s1-.4477 1-1v-5.65683c0-.55228-.4477-1-1-1h-5.65683c-.55228 0-1 .44772-1 1 0 .55229.44772 1.00003 1 1.00003h3.24263l-7.62986 7.6299c-.41869.4186-.62804.628-.90009.6944-.21711.0529-.50929.0163-.7066-.0886-.24725-.1315-.37876-.353-.64178-.7959-2.5068986-4.2211-1.944912-9.75871 1.68596-13.38957 4.29576-4.2957712 11.26057-4.2957719 15.55637-.00001 4.2957 4.29577 4.2957 11.26058 0 15.55638-3.6309 3.6308-9.1685 4.1928-13.38964 1.6859z" fill="#801ed7"/></svg>

<svg width="24" height="24" viewBox="0 0 24 24" fill="none" xmlns="http://www.w3.org/2000/svg">
<path d="M6.38856 21.4641C5.94567 21.2011 5.72423 21.0696 5.59274 20.8224C5.4878 20.625 5.45116 20.3329 5.50414 20.1158C5.57052 19.8437 5.77986 19.6344 6.19855 19.2157L13.8284 11.5858V14.8284C13.8284 15.3807 14.2761 15.8284 14.8284 15.8284C15.3807 15.8284 15.8284 15.3807 15.8284 14.8284V9.17157C15.8284 8.61929 15.3807 8.17157 14.8284 8.17157L9.17157 8.17157C8.61929 8.17157 8.17157 8.61929 8.17157 9.17157C8.17157 9.72386 8.61929 10.1716 9.17157 10.1716L12.4142 10.1716L4.78434 17.8015C4.36565 18.2201 4.1563 18.4295 3.88425 18.4959C3.66714 18.5488 3.37496 18.5122 3.17765 18.4073C2.9304 18.2758 2.79889 18.0543 2.53587 17.6114C0.0289714 13.3903 0.590958 7.85269 4.22183 4.22183C8.51759 -0.0739412 15.4824 -0.0739419 19.7782 4.22182C24.0739 8.51759 24.0739 15.4824 19.7782 19.7782C16.1473 23.409 10.6097 23.971 6.38856 21.4641Z" fill="#801ED7"/>
</svg>
